svg/business/currency_lira_2_fill.svg

<?xml version="1.0" encoding="UTF-8"?>
<svg width="24px" height="24px" viewBox="0 0 24 24" version="1.1" xmlns="http://www.w3.org/2000/svg" xmlns:xlink="http://www.w3.org/1999/xlink">
    <title>currency_lira_2_fill</title>
    <g id="页面-1" stroke="none" stroke-width="1" fill="none" fill-rule="evenodd">
        <g id="Business" transform="translate(-192.000000, -336.000000)" fill-rule="nonzero">
            <g id="currency_lira_2_fill" transform="translate(192.000000, 336.000000)">
                <path d="M24,0 L24,24 L0,24 L0,0 L24,0 Z M12.5934901,23.257841 L12.5819402,23.2595131 L12.5108777,23.2950439 L12.4918791,23.2987469 L12.4918791,23.2987469 L12.4767152,23.2950439 L12.4056548,23.2595131 C12.3958229,23.2563662 12.3870493,23.2590235 12.3821421,23.2649074 L12.3780323,23.275831 L12.360941,23.7031097 L12.3658947,23.7234994 L12.3769048,23.7357139 L12.4804777,23.8096931 L12.4953491,23.8136134 L12.4953491,23.8136134 L12.5071152,23.8096931 L12.6106902,23.7357139 L12.6232938,23.7196733 L12.6232938,23.7196733 L12.6266527,23.7031097 L12.609561,23.275831 C12.6075724,23.2657013 12.6010112,23.2592993 12.5934901,23.257841 L12.5934901,23.257841 Z M12.8583906,23.1452862 L12.8445485,23.1473072 L12.6598443,23.2396597 L12.6498822,23.2499052 L12.6498822,23.2499052 L12.6471943,23.2611114 L12.6650943,23.6906389 L12.6699349,23.7034178 L12.6699349,23.7034178 L12.678386,23.7104931 L12.8793402,23.8032389 C12.8914285,23.8068999 12.9022333,23.8029875 12.9078286,23.7952264 L12.9118235,23.7811639 L12.8776777,23.1665331 C12.8752882,23.1545897 12.8674102,23.1470016 12.8583906,23.1452862 L12.8583906,23.1452862 Z M12.1430473,23.1473072 C12.1332178,23.1423925 12.1221763,23.1452606 12.1156365,23.1525954 L12.1099173,23.1665331 L12.0757714,23.7811639 C12.0751323,23.7926639 12.0828099,23.8018602 12.0926481,23.8045676 L12.108256,23.8032389 L12.3092106,23.7104931 L12.3186497,23.7024347 L12.3186497,23.7024347 L12.3225043,23.6906389 L12.340401,23.2611114 L12.337245,23.2485176 L12.337245,23.2485176 L12.3277531,23.2396597 L12.1430473,23.1473072 Z" id="MingCute" fill-rule="nonzero"></path>
                <path d="M11.0001,2.5 C11.8285,2.5 12.5001,3.17157 12.5001,4 L12.5001,6.57295 L14.3293,5.65836 C15.0702,5.28788 15.9712,5.58821 16.3417,6.32918 C16.7122,7.07015 16.4119,7.97116 15.6709,8.34164 L12.5001,9.92705 L12.5001,10.5729 L14.3293,9.65836 C15.0702,9.28788 15.9712,9.58821 16.3417,10.3292 C16.7122,11.0701 16.4119,11.9712 15.6709,12.3416 L12.5001,13.9271 L12.5001,18.1301 C12.9666,17.9362 13.48,17.6598 13.9928,17.2869 C15.1491,16.446 16.1482,15.223 16.5449,13.6362 C16.7458,12.8325 17.5602,12.3439 18.3639,12.5448 C19.1676,12.7457 19.6562,13.5601 19.4553,14.3638 C18.852,16.777 17.351,18.554 15.7573,19.7131 C14.2016,20.8445 12.3994,21.5 11.0001,21.5 C10.1717,21.5 9.50008,20.8284 9.50008,20 L9.50008,15.4271 L7.6709,16.3416 C6.92994,16.7121 6.02893,16.4118 5.65844,15.6708 C5.28796,14.9299 5.5883,14.0288 6.32926,13.6584 L9.50008,12.0729 L9.50008,11.4271 L7.6709,12.3416 C6.92994,12.7121 6.02893,12.4118 5.65844,11.6708 C5.28796,10.9299 5.5883,10.0288 6.32926,9.65836 L9.50008,8.07295 L9.50008,4 C9.50008,3.17157 10.1717,2.5 11.0001,2.5 Z" id="路径" fill="#09244B"></path>
            </g>
        </g>
    </g>
</svg>

<svg xmlns="http://www.w3.org/2000/svg" width="24" height="24"><g fill="none" fill-rule="nonzero"><path d="M24 0v24H0V0zM12.593 23.258l-.011.002-.071.035-.02.004-.014-.004-.071-.035c-.01-.004-.019-.001-.024.005l-.004.01-.017.428.005.02.01.013.104.074.015.004.012-.004.104-.074.012-.016.004-.017-.017-.427c-.002-.01-.009-.017-.017-.018m.265-.113-.013.002-.185.093-.01.01-.003.011.018.43.005.012.008.007.201.093c.012.004.023 0 .029-.008l.004-.014-.034-.614c-.003-.012-.01-.02-.02-.022m-.715.002a.023.023 0 0 0-.027.006l-.006.014-.034.614c0 .012.007.02.017.024l.015-.002.201-.093.01-.008.004-.011.017-.43-.003-.012-.01-.01z"/><path fill="#09244B" d="M11 2.5A1.5 1.5 0 0 1 12.5 4v2.573l1.83-.915a1.5 1.5 0 1 1 1.34 2.684L12.5 9.927v.646l1.83-.915a1.5 1.5 0 0 1 1.34 2.684l-3.17 1.585v4.203c.467-.194.98-.47 1.493-.843 1.156-.841 2.155-2.064 2.552-3.65a1.5 1.5 0 1 1 2.91.727c-.603 2.413-2.104 4.19-3.698 5.35C14.202 20.843 12.4 21.5 11 21.5A1.5 1.5 0 0 1 9.5 20v-4.573l-1.83.915a1.5 1.5 0 1 1-1.34-2.684l3.17-1.585v-.646l-1.83.915a1.5 1.5 0 1 1-1.34-2.684L9.5 8.073V4A1.5 1.5 0 0 1 11 2.5"/></g></svg>
